!!!COM: Corelli, Arcangelo
!!!OTL: 
!!!ONM: Opus 3, No. 7
!!!OMV: 2
!!!CDT: 1653/2/17/-1713/1/8/
!!!OCY: Italia
**kern	**kern	**kern	**kern
*clefC	*clefC	*clefG	*clefG
*k[f#]	*k[f#]	*k[f#]	*k[f#]
*e:	*e:	*e:	*e:
*M2/2	*M2/2	*M2/2	*M2/2
=1	=1	=1	=1
4E	1r	1r	4r
2e	.	.	4g
.	.	.	4f#
4d	.	.	4b
=2	=2	=2	=2
4c	1r	1r	4e
4G	.	.	2ee
4A	.	.	.
4B	.	.	4dd#
=3	=3	=3	=3
2E	1r	1r	8e
.	.	.	8f#
.	.	.	8g
.	.	.	8e
2D#	.	.	8f#
.	.	.	8g
.	.	.	8a
.	.	.	8f#
=4	=4	=4	=4
4E	1r	4r	8g
.	.	.	8a
4BB	.	4dd	2b
2F#	.	4cc#	.
.	.	4ff#	4a#
=5	=5	=5	=5
4G	1r	4b	4r
4D	.	2bb	4dd
4E	.	.	2cc#
4F#	.	4aa#	.
=6	=6	=6	=6
2BB	1r	8b	4b
.	.	8cc#	.
.	.	8dd	2bb
.	.	8b	.
2r	.	8cc#	.
.	.	8dd#	.
.	.	8ee	[4aa
.	.	8cc#	.
=7	=7	=7	=7
4r	4r	8dd#	4aa]
.	.	8b	.
4G	4G	2ee	4gg
4F#	4F#	.	4aa
4B	4B	4dd#	4ff#
=8	=8	=8	=8
4E	4E	4ee	4gg
2e	2e	4gg	4ee
.	.	4aa	[2ff#
4d#	4d#	4bb	.
=9	=9	=9	=9
8E	8E	2gg	4ff#]
8F#	8F#	.	.
8G	8G	.	4ee
8E	8E	.	.
8F#	8F#	4aa	4dd
8G	8G	.	.
8A	8A	[4a	4cc
8F#	8F#	.	.
=10	=10	=10	=10
8G	8G	4a]	2b
8D	8D	.	.
8G	8G	2g	.
8BB	8BB	.	.
4C#	4C#	.	2a
4D#	4D#	[4f#	.
=11	=11	=11	=11
4E	4E	4f#]	2g
4GG	4GG	2e	.
4AA	4AA	.	2f#
4BB	4BB	4d#	.
=12	=12	=12	=12
2E	2E	2e	8e
.	.	.	8f#
.	.	.	8g
.	.	.	8e
2BB	2BB	2d#	8f#
.	.	.	8g
.	.	.	8a
.	.	.	8f#
=13	=13	=13	=13
4E	4E	4g	8g
.	.	.	8a
4D	4D	4f#	2b
2C	2C	2e	.
.	.	.	4a
=14	=14	=14	=14
2BB	2BB	2d#	2b
4BB	2r	2r	4r
[4B	.	.	4dd
=15	=15	=15	=15
4B]	1r	2.r	4cc#
4A	.	.	4ff#
4G	.	.	4b
8D	.	4dd	[4bb
8E	.	.	.
=16	=16	=16	=16
2F#	2.r	4cc#	4bb]
.	.	4ff#	4aa#
4r	.	4b	4bb
4d	4d	[4bb	4ff#
=17	=17	=17	=17
4c#	4c#	4bb]	2ee
4f#	4f#	2aa	.
4B	4B	.	2dd
4e	4e	[4gg	.
=18	=18	=18	=18
4A	4A	4gg]	2cc
4d	4d	4ff#	.
4G	4G	4gg	4.b
4BB	4BB	[4dd	.
.	.	.	8dd
=19	=19	=19	=19
2C	2C	4dd]	8ee
.	.	.	8ff#
.	.	2cc	8gg
.	.	.	8aa
4D	4D	.	8ff#
.	.	.	8dd
4G	4G	4b	8r
.	.	.	8dd
=20	=20	=20	=20
4C	4C	8e	8ee
.	.	8f#	8dd
4GG	4GG	2g	8cc
.	.	.	8b
4D	4D	.	2a
4DD	4DD	4f#	.
=21	=21	=21	=21
4GG	4GG	4g	4g
4G	4G	2.r	2ee
4F#	4F#	.	.
4B	4B	.	4dd#
=22	=22	=22	=22
4E	4E	4r	4ee
2.r	2.r	2ee	4gg
.	.	.	4ff#
.	.	4dd#	4bb
=23	=23	=23	=23
4r	4r	4ee	4gg
4E	4E	4g#	2ee
4F#	4F#	4a	.
4G#	4G#	4b	[4dd
=24	=24	=24	=24
4A	4A	4e	4dd]
4C	4C	2a	4cc
4D	4D	.	2b
4E	4E	4g#	.
=25	=25	=25	=25
4AA	4AA	4a	4a
2A	2A	2.r	4cc
.	.	.	4b
4G	4G	.	4ee
=26	=26	=26	=26
4F	4F	4r	4a
8C	8C	4cc	2aa
8D	8D	.	.
4E	4E	4b	.
4EE	4EE	4ee	4gg#
=27	=27	=27	=27
4r	4r	4a	2ccc
4c	4c	2aa	.
4d	4d	.	[2bb
4e	4e	4gg#	.
=28	=28	=28	=28
8A	8A	2.ccc	4bb]
8B	8B	.	.
8c	8c	.	4aa
8A	8A	.	.
8B	8B	.	2ddd
8A	8A	.	.
8G#	8G#	[4bb	.
8E	8E	.	.
=29	=29	=29	=29
8A	8A	4bb]	2ccc
8B	8B	.	.
8c	8c	2aa	.
8d	8d	.	.
8e	8e	.	2bb
8E	8E	.	.
8G	8G	[4gg	.
8E	8E	.	.
=30	=30	=30	=30
4.A	8A	4gg]	4ccc
.	8B	.	.
.	8c	8ff#	2aa
8A	8A	8ee	.
4B	4B	8dd#	.
.	.	8b	.
8r	8r	8ee	4gg
8G	8G	8bb	.
=31	=31	=31	=31
8A	8A	4aa	8cc#
8B	8B	.	8dd#
8c	8c	4gg	2ee
8G	8G	.	.
8A	8A	2ff#	.
8F#	8F#	.	.
8B	8B	.	4dd#
8BB	8BB	.	.
=32	=32	=32	=32
4E	4E	4ee	8ee
.	.	.	8b
4e	4e	8r	4.cc
.	.	8g	.
4d	4d	4.f#	.
.	.	.	8f#
4G	4G	.	[4b
.	.	8g	.
=33	=33	=33	=33
4c	4c	4.e	8b]
.	.	.	8e
4F#	4F#	.	2a
.	.	8f#	.
4B	4B	8d#	.
.	.	8B	.
4E	4E	[4b	4g
=34	=34	=34	=34
4A	4A	8b]	2cc
.	.	8e	.
4AA	4AA	2a	.
[2BB	[2BB	.	4d#
.	.	4g	[4e
=35	=35	=35	=35
2BB]	2BB]	2f#	4e]
.	.	.	4d#
2EE	2EE	2e	2e
==	==	==	==
*-	*-	*-	*-
!!!RWG: This file only contains pitch and duration data.
!!!RWG: Transposing instruments are not transposed.
!!!RWG: Durations of rests and tied notes may be interpreted.
!!!RWG: Key is interpreted using the Humdrum key tool.
!!!SCA: 
!!!YOR: Chrysander Edition
!!!AGN: chamber
!!!AFT: stage1
!!!ENC: F. Bennion
!!!END: 1997/04/15
!!!AST: baroque
!!!YEC: Copyright 1994, Center for Computer Assisted Research in the Humanities
!!!YEM: Rights to all derivative electronic formats reserved.
!!!YEM: Refer to licensing agreement for further details.
!!!YEN: United States of America
!!!EED: W.B. Hewlett
!!!KEY: 4161790297
!!!EMD: Converted from MuseData to Humdrum Aug 9, 1999, by Bret Aarden using muse2kern.
!!!VTS: 3603700338
